svgs/messenger.svg

<svg width="192" height="192" viewBox="0 0 192 192" fill="none" xmlns="http://www.w3.org/2000/svg"><g clip-path="url(#a)" stroke="#000" stroke-width="12" stroke-linejoin="round"><path d="M148.326 43.674c-28.899-28.899-75.753-28.899-104.652 0-25.014 25.014-28.377 63.481-10.087 92.112l-4.336 22.272c-.542 2.784 1.907 5.233 4.691 4.691l22.272-4.336c28.631 18.29 67.098 14.927 92.112-10.087 28.899-28.899 28.899-75.753 0-104.652Z"/><path d="m131.355 83.272-24.041 24.042-21.92-21.92-24.042 24.041" stroke-linecap="round"/></g><defs><clipPath id="a"><path fill="#fff" d="M0 0h192v192H0z"/></clipPath></defs></svg>

<?xml version="1.0" encoding="UTF-8" standalone="no"?><svg xmlns:android="http://schemas.android.com/apk/res/android" height="192" width="192" xmlns="http://www.w3.org/2000/svg">
  <g>
    <clip-path android:pathData="M0,0h192v192h-192z"/>
    <path d="M148.326,43.674C119.427,14.775 72.573,14.775 43.674,43.674C18.66,68.688 15.297,107.155 33.587,135.786L29.251,158.058C28.709,160.842 31.158,163.291 33.942,162.749L56.214,158.413C84.845,176.703 123.312,173.34 148.326,148.326C177.225,119.427 177.225,72.573 148.326,43.674Z" fill="#000000" fill-opacity="0.0" stroke="#000000" stroke-linejoin="round" stroke-width="12"/>
    <path d="M131.355,83.272L107.314,107.314L85.393,85.393L61.352,109.435" fill="#000000" fill-opacity="0.0" stroke="#000000" stroke-linecap="round" stroke-linejoin="round" stroke-width="12"/>
  </g>
</svg>
